images/50571394.svg

<?xml version="1.0" encoding="UTF-8"?>
<svg xmlns="http://www.w3.org/2000/svg" xmlns:xlink="http://www.w3.org/1999/xlink" width="300pt" height="300pt" viewBox="0 0 300 300" version="1.1">
<defs>
<g>
<symbol overflow="visible" id="glyph0-0">
<path style="stroke:none;" d="M 0.59375 2.125 L 0.59375 -8.46875 L 6.59375 -8.46875 L 6.59375 2.125 Z M 1.265625 1.453125 L 5.9375 1.453125 L 5.9375 -7.78125 L 1.265625 -7.78125 Z M 1.265625 1.453125 "/>
</symbol>
<symbol overflow="visible" id="glyph0-1">
<path style="stroke:none;" d="M 4.734375 -7.953125 C 3.867188 -7.953125 3.179688 -7.628906 2.671875 -6.984375 C 2.171875 -6.347656 1.921875 -5.472656 1.921875 -4.359375 C 1.921875 -3.265625 2.171875 -2.394531 2.671875 -1.75 C 3.179688 -1.113281 3.867188 -0.796875 4.734375 -0.796875 C 5.585938 -0.796875 6.265625 -1.113281 6.765625 -1.75 C 7.273438 -2.394531 7.53125 -3.265625 7.53125 -4.359375 C 7.53125 -5.472656 7.273438 -6.347656 6.765625 -6.984375 C 6.265625 -7.628906 5.585938 -7.953125 4.734375 -7.953125 Z M 4.734375 -8.90625 C 5.953125 -8.90625 6.925781 -8.492188 7.65625 -7.671875 C 8.394531 -6.847656 8.765625 -5.742188 8.765625 -4.359375 C 8.765625 -2.984375 8.394531 -1.882812 7.65625 -1.0625 C 6.925781 -0.238281 5.953125 0.171875 4.734375 0.171875 C 3.503906 0.171875 2.519531 -0.238281 1.78125 -1.0625 C 1.039062 -1.882812 0.671875 -2.984375 0.671875 -4.359375 C 0.671875 -5.742188 1.039062 -6.847656 1.78125 -7.671875 C 2.519531 -8.492188 3.503906 -8.90625 4.734375 -8.90625 Z M 4.734375 -8.90625 "/>
</symbol>
<symbol overflow="visible" id="glyph0-2">
<path style="stroke:none;" d="M 1.171875 -8.75 L 2.765625 -8.75 L 6.65625 -1.4375 L 6.65625 -8.75 L 7.796875 -8.75 L 7.796875 0 L 6.203125 0 L 2.328125 -7.3125 L 2.328125 0 L 1.171875 0 Z M 1.171875 -8.75 "/>
</symbol>
<symbol overflow="visible" id="glyph0-3">
<path style="stroke:none;" d="M 1.171875 -8.75 L 2.359375 -8.75 L 2.359375 -5.15625 L 6.65625 -5.15625 L 6.65625 -8.75 L 7.84375 -8.75 L 7.84375 0 L 6.65625 0 L 6.65625 -4.171875 L 2.359375 -4.171875 L 2.359375 0 L 1.171875 0 Z M 1.171875 -8.75 "/>
</symbol>
</g>
</defs>
<g id="surface25857">
<rect x="0" y="0" width="300" height="300" style="fill:rgb(100%,100%,100%);fill-opacity:1;stroke:none;"/>
<path style="fill:none;stroke-width:1.2;stroke-linecap:butt;stroke-linejoin:miter;stroke:rgb(100%,0%,0%);stroke-opacity:1;stroke-miterlimit:10;" d="M 160.027344 91.640625 L 173.855469 98.203125 "/>
<path style="fill:none;stroke-width:1.2;stroke-linecap:butt;stroke-linejoin:miter;stroke:rgb(0%,0%,0%);stroke-opacity:1;stroke-miterlimit:10;" d="M 173.855469 98.203125 L 187.683594 104.765625 "/>
<path style="fill:none;stroke-width:1.2;stroke-linecap:butt;stroke-linejoin:miter;stroke:rgb(0%,0%,0%);stroke-opacity:1;stroke-miterlimit:10;" d="M 163.964844 61.28125 L 161.996094 76.460938 "/>
<path style="fill:none;stroke-width:1.2;stroke-linecap:butt;stroke-linejoin:miter;stroke:rgb(100%,0%,0%);stroke-opacity:1;stroke-miterlimit:10;" d="M 161.996094 76.460938 L 160.027344 91.640625 "/>
<path style=" stroke:none;fill-rule:nonzero;fill:rgb(100%,100%,100%);fill-opacity:1;" d="M 155.027344 84.640625 L 165.027344 84.640625 L 165.027344 98.640625 L 155.027344 98.640625 Z M 155.027344 84.640625 "/>
<g style="fill:rgb(100%,0%,0%);fill-opacity:1;">
  <use xlink:href="#glyph0-1" x="155.027344" y="95.779297"/>
</g>
<path style="fill:none;stroke-width:1.2;stroke-linecap:butt;stroke-linejoin:miter;stroke:rgb(0%,0%,0%);stroke-opacity:1;stroke-miterlimit:10;" d="M 187.683594 104.765625 L 196.433594 134.101562 "/>
<path style="fill:none;stroke-width:1.2;stroke-linecap:butt;stroke-linejoin:miter;stroke:rgb(0%,0%,0%);stroke-opacity:1;stroke-miterlimit:10;" d="M 195.460938 105.640625 L 202.460938 129.109375 "/>
<path style="fill:none;stroke-width:1.2;stroke-linecap:butt;stroke-linejoin:miter;stroke:rgb(0%,0%,0%);stroke-opacity:1;stroke-miterlimit:10;" d="M 208.714844 82.519531 L 187.683594 104.765625 "/>
<path style="fill:none;stroke-width:1.2;stroke-linecap:butt;stroke-linejoin:miter;stroke:rgb(0%,0%,0%);stroke-opacity:1;stroke-miterlimit:10;" d="M 196.433594 134.101562 L 226.214844 141.191406 "/>
<path style="fill:none;stroke-width:1.2;stroke-linecap:butt;stroke-linejoin:miter;stroke:rgb(0%,0%,0%);stroke-opacity:1;stroke-miterlimit:10;" d="M 226.214844 141.191406 L 247.246094 118.941406 "/>
<path style="fill:none;stroke-width:1.2;stroke-linecap:butt;stroke-linejoin:miter;stroke:rgb(0%,0%,0%);stroke-opacity:1;stroke-miterlimit:10;" d="M 223.085938 134.015625 L 239.910156 116.21875 "/>
<path style="fill:none;stroke-width:1.2;stroke-linecap:butt;stroke-linejoin:miter;stroke:rgb(0%,0%,0%);stroke-opacity:1;stroke-miterlimit:10;" d="M 226.214844 141.191406 L 234.96875 170.527344 "/>
<path style="fill:none;stroke-width:1.2;stroke-linecap:butt;stroke-linejoin:miter;stroke:rgb(0%,0%,0%);stroke-opacity:1;stroke-miterlimit:10;" d="M 247.246094 118.941406 L 238.496094 89.605469 "/>
<path style="fill:none;stroke-width:1.2;stroke-linecap:butt;stroke-linejoin:miter;stroke:rgb(0%,0%,0%);stroke-opacity:1;stroke-miterlimit:10;" d="M 238.496094 89.605469 L 208.714844 82.519531 "/>
<path style="fill:none;stroke-width:1.2;stroke-linecap:butt;stroke-linejoin:miter;stroke:rgb(0%,0%,0%);stroke-opacity:1;stroke-miterlimit:10;" d="M 233.847656 95.90625 L 210.023438 90.234375 "/>
<path style="fill:none;stroke-width:1.2;stroke-linecap:butt;stroke-linejoin:miter;stroke:rgb(0%,0%,0%);stroke-opacity:1;stroke-miterlimit:10;" d="M 208.714844 82.519531 L 201.382812 69.082031 "/>
<path style="fill:none;stroke-width:1.2;stroke-linecap:butt;stroke-linejoin:miter;stroke:rgb(100%,0%,0%);stroke-opacity:1;stroke-miterlimit:10;" d="M 201.382812 69.082031 L 194.054688 55.644531 "/>
<path style="fill:none;stroke-width:1.2;stroke-linecap:butt;stroke-linejoin:miter;stroke:rgb(100%,0%,0%);stroke-opacity:1;stroke-miterlimit:10;" d="M 194.054688 55.644531 L 179.007812 58.460938 "/>
<path style="fill:none;stroke-width:1.2;stroke-linecap:butt;stroke-linejoin:miter;stroke:rgb(0%,0%,0%);stroke-opacity:1;stroke-miterlimit:10;" d="M 179.007812 58.460938 L 163.964844 61.28125 "/>
<path style=" stroke:none;fill-rule:nonzero;fill:rgb(100%,100%,100%);fill-opacity:1;" d="M 189.054688 48.644531 L 199.054688 48.644531 L 199.054688 62.644531 L 189.054688 62.644531 Z M 189.054688 48.644531 "/>
<g style="fill:rgb(100%,0%,0%);fill-opacity:1;">
  <use xlink:href="#glyph0-1" x="189.054688" y="59.783203"/>
</g>
<path style="fill:none;stroke-width:1.2;stroke-linecap:butt;stroke-linejoin:miter;stroke:rgb(0%,0%,0%);stroke-opacity:1;stroke-miterlimit:10;" d="M 234.132812 174.03125 L 249.023438 177.574219 "/>
<path style="fill:none;stroke-width:1.2;stroke-linecap:butt;stroke-linejoin:miter;stroke:rgb(100%,0%,0%);stroke-opacity:1;stroke-miterlimit:10;" d="M 249.023438 177.574219 L 263.917969 181.117188 "/>
<path style="fill:none;stroke-width:1.2;stroke-linecap:butt;stroke-linejoin:miter;stroke:rgb(0%,0%,0%);stroke-opacity:1;stroke-miterlimit:10;" d="M 235.800781 167.023438 L 250.691406 170.566406 "/>
<path style="fill:none;stroke-width:1.2;stroke-linecap:butt;stroke-linejoin:miter;stroke:rgb(100%,0%,0%);stroke-opacity:1;stroke-miterlimit:10;" d="M 250.691406 170.566406 L 265.582031 174.109375 "/>
<path style="fill:none;stroke-width:1.2;stroke-linecap:butt;stroke-linejoin:miter;stroke:rgb(0%,0%,0%);stroke-opacity:1;stroke-miterlimit:10;" d="M 234.96875 170.527344 L 224.453125 181.648438 "/>
<path style="fill:none;stroke-width:1.2;stroke-linecap:butt;stroke-linejoin:miter;stroke:rgb(0%,0%,100%);stroke-opacity:1;stroke-miterlimit:10;" d="M 224.453125 181.648438 L 213.9375 192.773438 "/>
<path style=" stroke:none;fill-rule:nonzero;fill:rgb(100%,100%,100%);fill-opacity:1;" d="M 259.75 170.613281 L 269.75 170.613281 L 269.75 184.613281 L 259.75 184.613281 Z M 259.75 170.613281 "/>
<g style="fill:rgb(100%,0%,0%);fill-opacity:1;">
  <use xlink:href="#glyph0-1" x="259.75" y="181.751953"/>
</g>
<path style="fill:none;stroke-width:1.2;stroke-linecap:butt;stroke-linejoin:miter;stroke:rgb(0%,0%,100%);stroke-opacity:1;stroke-miterlimit:10;" d="M 213.9375 192.773438 L 218.316406 207.441406 "/>
<path style="fill:none;stroke-width:1.2;stroke-linecap:butt;stroke-linejoin:miter;stroke:rgb(0%,0%,0%);stroke-opacity:1;stroke-miterlimit:10;" d="M 218.316406 207.441406 L 222.691406 222.109375 "/>
<path style="fill:none;stroke-width:1.2;stroke-linecap:butt;stroke-linejoin:miter;stroke:rgb(0%,0%,100%);stroke-opacity:1;stroke-miterlimit:10;" d="M 213.9375 192.773438 L 199.046875 189.230469 "/>
<path style="fill:none;stroke-width:1.2;stroke-linecap:butt;stroke-linejoin:miter;stroke:rgb(0%,0%,0%);stroke-opacity:1;stroke-miterlimit:10;" d="M 199.046875 189.230469 L 184.15625 185.683594 "/>
<path style=" stroke:none;fill-rule:nonzero;fill:rgb(100%,100%,100%);fill-opacity:1;" d="M 209.9375 185.773438 L 218.9375 185.773438 L 218.9375 199.773438 L 209.9375 199.773438 Z M 209.9375 185.773438 "/>
<g style="fill:rgb(0%,0%,100%);fill-opacity:1;">
  <use xlink:href="#glyph0-2" x="209.9375" y="196.912109"/>
</g>
<path style="fill:none;stroke-width:1.2;stroke-linecap:butt;stroke-linejoin:miter;stroke:rgb(0%,0%,0%);stroke-opacity:1;stroke-miterlimit:10;" d="M 222.691406 222.109375 L 201.660156 244.355469 "/>
<path style="fill:none;stroke-width:1.2;stroke-linecap:butt;stroke-linejoin:miter;stroke:rgb(0%,0%,0%);stroke-opacity:1;stroke-miterlimit:10;" d="M 184.15625 185.683594 L 179.78125 171.015625 "/>
<path style="fill:none;stroke-width:1.2;stroke-linecap:butt;stroke-linejoin:miter;stroke:rgb(0%,0%,100%);stroke-opacity:1;stroke-miterlimit:10;" d="M 179.78125 171.015625 L 175.40625 156.347656 "/>
<path style="fill:none;stroke-width:1.2;stroke-linecap:butt;stroke-linejoin:miter;stroke:rgb(0%,0%,0%);stroke-opacity:1;stroke-miterlimit:10;" d="M 176.378906 184.808594 L 172.878906 173.074219 "/>
<path style="fill:none;stroke-width:1.2;stroke-linecap:butt;stroke-linejoin:miter;stroke:rgb(0%,0%,100%);stroke-opacity:1;stroke-miterlimit:10;" d="M 172.878906 173.074219 L 169.378906 161.339844 "/>
<path style="fill:none;stroke-width:1.2;stroke-linecap:butt;stroke-linejoin:miter;stroke:rgb(0%,0%,0%);stroke-opacity:1;stroke-miterlimit:10;" d="M 163.128906 207.933594 L 184.15625 185.683594 "/>
<path style="fill:none;stroke-width:1.2;stroke-linecap:butt;stroke-linejoin:miter;stroke:rgb(0%,0%,100%);stroke-opacity:1;stroke-miterlimit:10;" d="M 175.40625 156.347656 L 160.515625 152.804688 "/>
<path style="fill:none;stroke-width:1.2;stroke-linecap:butt;stroke-linejoin:miter;stroke:rgb(0%,0%,0%);stroke-opacity:1;stroke-miterlimit:10;" d="M 160.515625 152.804688 L 145.625 149.261719 "/>
<path style=" stroke:none;fill-rule:nonzero;fill:rgb(100%,100%,100%);fill-opacity:1;" d="M 171.40625 149.347656 L 180.40625 149.347656 L 180.40625 163.347656 L 171.40625 163.347656 Z M 171.40625 149.347656 "/>
<g style="fill:rgb(0%,0%,100%);fill-opacity:1;">
  <use xlink:href="#glyph0-2" x="171.40625" y="160.486328"/>
</g>
<path style="fill:none;stroke-width:1.2;stroke-linecap:butt;stroke-linejoin:miter;stroke:rgb(0%,0%,0%);stroke-opacity:1;stroke-miterlimit:10;" d="M 145.625 149.261719 L 135.109375 160.382812 "/>
<path style="fill:none;stroke-width:1.2;stroke-linecap:butt;stroke-linejoin:miter;stroke:rgb(0%,0%,100%);stroke-opacity:1;stroke-miterlimit:10;" d="M 135.109375 160.382812 L 124.59375 171.507812 "/>
<path style="fill:none;stroke-width:1.2;stroke-linecap:butt;stroke-linejoin:miter;stroke:rgb(0%,0%,0%);stroke-opacity:1;stroke-miterlimit:10;" d="M 148.753906 156.433594 L 140.34375 165.332031 "/>
<path style="fill:none;stroke-width:1.2;stroke-linecap:butt;stroke-linejoin:miter;stroke:rgb(0%,0%,100%);stroke-opacity:1;stroke-miterlimit:10;" d="M 140.34375 165.332031 L 131.933594 174.230469 "/>
<path style="fill:none;stroke-width:1.2;stroke-linecap:butt;stroke-linejoin:miter;stroke:rgb(0%,0%,0%);stroke-opacity:1;stroke-miterlimit:10;" d="M 145.625 149.261719 L 141.25 134.59375 "/>
<path style="fill:none;stroke-width:1.2;stroke-linecap:butt;stroke-linejoin:miter;stroke:rgb(0%,0%,100%);stroke-opacity:1;stroke-miterlimit:10;" d="M 141.25 134.59375 L 136.871094 119.925781 "/>
<path style="fill:none;stroke-width:1.2;stroke-linecap:butt;stroke-linejoin:miter;stroke:rgb(0%,0%,100%);stroke-opacity:1;stroke-miterlimit:10;" d="M 124.59375 171.507812 L 128.96875 186.175781 "/>
<path style="fill:none;stroke-width:1.2;stroke-linecap:butt;stroke-linejoin:miter;stroke:rgb(0%,0%,0%);stroke-opacity:1;stroke-miterlimit:10;" d="M 128.96875 186.175781 L 133.347656 200.84375 "/>
<path style=" stroke:none;fill-rule:nonzero;fill:rgb(100%,100%,100%);fill-opacity:1;" d="M 120.59375 164.507812 L 129.59375 164.507812 L 129.59375 178.507812 L 120.59375 178.507812 Z M 120.59375 164.507812 "/>
<g style="fill:rgb(0%,0%,100%);fill-opacity:1;">
  <use xlink:href="#glyph0-2" x="120.59375" y="175.646484"/>
</g>
<path style="fill:none;stroke-width:1.2;stroke-linecap:butt;stroke-linejoin:miter;stroke:rgb(0%,0%,0%);stroke-opacity:1;stroke-miterlimit:10;" d="M 133.347656 200.84375 L 163.128906 207.933594 "/>
<path style="fill:none;stroke-width:1.2;stroke-linecap:butt;stroke-linejoin:miter;stroke:rgb(0%,0%,0%);stroke-opacity:1;stroke-miterlimit:10;" d="M 137.992188 194.542969 L 161.816406 200.214844 "/>
<path style="fill:none;stroke-width:1;stroke-linecap:butt;stroke-linejoin:miter;stroke:rgb(0%,0%,0%);stroke-opacity:1;stroke-miterlimit:10;" d="M 107.089844 112.835938 L 107.089844 112.835938 M 109.84375 114.027344 L 110.085938 113.011719 M 112.597656 115.21875 L 113.082031 113.191406 M 115.351562 116.410156 L 116.074219 113.367188 M 118.105469 117.601562 L 119.070312 113.542969 M 120.859375 118.792969 L 122.066406 113.71875 M 123.609375 119.984375 L 125.058594 113.898438 M 126.363281 121.175781 L 128.054688 114.074219 M 129.117188 122.367188 L 131.050781 114.25 M 131.871094 123.558594 L 134.042969 114.429688 M 134.625 124.75 L 137.039062 114.605469 M 135.621094 125.179688 L 138.125 114.667969 "/>
<path style=" stroke:none;fill-rule:nonzero;fill:rgb(100%,100%,100%);fill-opacity:1;" d="M 127.871094 112.925781 L 145.871094 112.925781 L 145.871094 126.925781 L 127.871094 126.925781 Z M 127.871094 112.925781 "/>
<g style="fill:rgb(0%,0%,100%);fill-opacity:1;">
  <use xlink:href="#glyph0-2" x="127.871094" y="124.064453"/>
  <use xlink:href="#glyph0-3" x="136.847656" y="124.064453"/>
</g>
<path style="fill:none;stroke-width:1.2;stroke-linecap:butt;stroke-linejoin:miter;stroke:rgb(0%,0%,0%);stroke-opacity:1;stroke-miterlimit:10;" d="M 107.089844 112.835938 L 98.339844 83.5 "/>
<path style="fill:none;stroke-width:1.2;stroke-linecap:butt;stroke-linejoin:miter;stroke:rgb(0%,0%,0%);stroke-opacity:1;stroke-miterlimit:10;" d="M 107.089844 112.835938 L 86.0625 135.082031 "/>
<path style="fill:none;stroke-width:1.2;stroke-linecap:butt;stroke-linejoin:miter;stroke:rgb(0%,0%,0%);stroke-opacity:1;stroke-miterlimit:10;" d="M 86.0625 135.082031 L 56.28125 127.996094 "/>
<path style="fill:none;stroke-width:1.2;stroke-linecap:butt;stroke-linejoin:miter;stroke:rgb(0%,0%,0%);stroke-opacity:1;stroke-miterlimit:10;" d="M 81.414062 141.382812 L 57.589844 135.710938 "/>
<path style="fill:none;stroke-width:1.2;stroke-linecap:butt;stroke-linejoin:miter;stroke:rgb(0%,0%,0%);stroke-opacity:1;stroke-miterlimit:10;" d="M 94.8125 164.417969 L 86.0625 135.082031 "/>
<path style="fill:none;stroke-width:1.2;stroke-linecap:butt;stroke-linejoin:miter;stroke:rgb(0%,0%,0%);stroke-opacity:1;stroke-miterlimit:10;" d="M 56.28125 127.996094 L 35.25 150.242188 "/>
<path style="fill:none;stroke-width:1.2;stroke-linecap:butt;stroke-linejoin:miter;stroke:rgb(0%,0%,0%);stroke-opacity:1;stroke-miterlimit:10;" d="M 35.25 150.242188 L 44 179.578125 "/>
<path style="fill:none;stroke-width:1.2;stroke-linecap:butt;stroke-linejoin:miter;stroke:rgb(0%,0%,0%);stroke-opacity:1;stroke-miterlimit:10;" d="M 43.027344 151.117188 L 50.027344 174.585938 "/>
<path style="fill:none;stroke-width:1.2;stroke-linecap:butt;stroke-linejoin:miter;stroke:rgb(0%,0%,0%);stroke-opacity:1;stroke-miterlimit:10;" d="M 44 179.578125 L 73.785156 186.664062 "/>
<path style="fill:none;stroke-width:1.2;stroke-linecap:butt;stroke-linejoin:miter;stroke:rgb(0%,0%,0%);stroke-opacity:1;stroke-miterlimit:10;" d="M 73.785156 186.664062 L 94.8125 164.417969 "/>
<path style="fill:none;stroke-width:1.2;stroke-linecap:butt;stroke-linejoin:miter;stroke:rgb(0%,0%,0%);stroke-opacity:1;stroke-miterlimit:10;" d="M 70.652344 179.492188 L 87.476562 161.695312 "/>
</g>
</svg>

<svg xmlns="http://www.w3.org/2000/svg" xmlns:xlink="http://www.w3.org/1999/xlink" width="300pt" height="300pt" viewBox="0 0 300 300"><defs><symbol overflow="visible"><path d="M.594 2.125V-8.47h6V2.126zm.672-.672h4.671V-7.78h-4.67zm0 0"/></symbol><symbol overflow="visible" id="a"><path d="M4.734-7.953c-.867 0-1.554.324-2.062.97-.5.635-.75 1.51-.75 2.624 0 1.094.25 1.965.75 2.61.508.637 1.195.953 2.062.953.852 0 1.532-.316 2.032-.953.507-.645.765-1.516.765-2.61 0-1.113-.257-1.988-.764-2.624-.5-.645-1.18-.97-2.032-.97zm0-.953c1.22 0 2.192.414 2.922 1.234.74.824 1.11 1.93 1.11 3.313 0 1.376-.37 2.477-1.11 3.298C6.926-.24 5.953.17 4.734.17c-1.23 0-2.214-.41-2.953-1.234C1.04-1.882.673-2.984.673-4.36c0-1.382.367-2.488 1.11-3.312.738-.82 1.722-1.234 2.952-1.234zm0 0"/></symbol><symbol overflow="visible" id="b"><path d="M1.172-8.75h1.594l3.89 7.313V-8.75h1.14V0H6.204L2.328-7.313V0H1.172zm0 0"/></symbol><symbol overflow="visible" id="c"><path d="M1.172-8.75H2.36v3.594h4.296V-8.75h1.188V0H6.656v-4.172H2.36V0H1.17zm0 0"/></symbol></defs><g><path fill="#fff" d="M0 0h300v300H0z"/><path d="M160.027 91.64l13.828 6.563" stroke-width="1.2" stroke="#f00" stroke-miterlimit="10" fill="none"/><path d="M173.855 98.203l13.83 6.563M163.965 61.28l-1.97 15.18" stroke-width="1.2" stroke="#000" stroke-miterlimit="10" fill="none"/><path d="M161.996 76.46l-1.97 15.18" stroke-width="1.2" stroke="#f00" stroke-miterlimit="10" fill="none"/><path d="M155.027 84.64h10v14h-10zm0 0" fill="#fff"/><use xlink:href="#a" x="155.027" y="95.779" fill="#f00"/><path d="M187.684 104.766l8.75 29.336M195.46 105.64l7 23.47M208.715 82.52l-21.03 22.246M196.434 134.102l29.78 7.09M226.215 141.19l21.03-22.25M223.086 134.016l16.824-17.797M226.215 141.19l8.754 29.337M247.246 118.94l-8.75-29.335M238.496 89.605l-29.78-7.085M233.848 95.906l-23.825-5.672M208.715 82.52l-7.332-13.438" stroke-width="1.2" stroke="#000" stroke-miterlimit="10" fill="none"/><path d="M201.383 69.082l-7.328-13.437M194.055 55.645l-15.047 2.816" stroke-width="1.2" stroke="#f00" stroke-miterlimit="10" fill="none"/><path d="M179.008 58.46l-15.043 2.82" stroke-width="1.2" stroke="#000" stroke-miterlimit="10" fill="none"/><path d="M189.055 48.645h10v14h-10zm0 0" fill="#fff"/><use xlink:href="#a" x="189.055" y="59.783" fill="#f00"/><path d="M234.133 174.03l14.89 3.544" stroke-width="1.2" stroke="#000" stroke-miterlimit="10" fill="none"/><path d="M249.023 177.574l14.895 3.543" stroke-width="1.2" stroke="#f00" stroke-miterlimit="10" fill="none"/><path d="M235.8 167.023l14.89 3.543" stroke-width="1.2" stroke="#000" stroke-miterlimit="10" fill="none"/><path d="M250.69 170.566l14.892 3.543" stroke-width="1.2" stroke="#f00" stroke-miterlimit="10" fill="none"/><path d="M234.97 170.527l-10.517 11.12" stroke-width="1.2" stroke="#000" stroke-miterlimit="10" fill="none"/><path d="M224.453 181.648l-10.516 11.125" stroke-width="1.2" stroke="#00f" stroke-miterlimit="10" fill="none"/><path d="M259.75 170.613h10v14h-10zm0 0" fill="#fff"/><use xlink:href="#a" x="259.75" y="181.752" fill="#f00"/><path d="M213.938 192.773l4.378 14.668" stroke-width="1.2" stroke="#00f" stroke-miterlimit="10" fill="none"/><path d="M218.316 207.44l4.375 14.67" stroke-width="1.2" stroke="#000" stroke-miterlimit="10" fill="none"/><path d="M213.938 192.773l-14.89-3.543" stroke-width="1.2" stroke="#00f" stroke-miterlimit="10" fill="none"/><path d="M199.047 189.23l-14.89-3.546" stroke-width="1.2" stroke="#000" stroke-miterlimit="10" fill="none"/><path d="M209.938 185.773h9v14h-9zm0 0" fill="#fff"/><use xlink:href="#b" x="209.938" y="196.912" fill="#00f"/><path d="M222.69 222.11l-21.03 22.245M184.156 185.684l-4.375-14.668" stroke-width="1.2" stroke="#000" stroke-miterlimit="10" fill="none"/><path d="M179.78 171.016l-4.374-14.668" stroke-width="1.2" stroke="#00f" stroke-miterlimit="10" fill="none"/><path d="M176.38 184.81l-3.5-11.736" stroke-width="1.2" stroke="#000" stroke-miterlimit="10" fill="none"/><path d="M172.88 173.074l-3.5-11.734" stroke-width="1.2" stroke="#00f" stroke-miterlimit="10" fill="none"/><path d="M163.13 207.934l21.026-22.25" stroke-width="1.2" stroke="#000" stroke-miterlimit="10" fill="none"/><path d="M175.406 156.348l-14.89-3.543" stroke-width="1.2" stroke="#00f" stroke-miterlimit="10" fill="none"/><path d="M160.516 152.805l-14.89-3.543" stroke-width="1.2" stroke="#000" stroke-miterlimit="10" fill="none"/><path d="M171.406 149.348h9v14h-9zm0 0" fill="#fff"/><use xlink:href="#b" x="171.406" y="160.486" fill="#00f"/><path d="M145.625 149.262l-10.516 11.12" stroke-width="1.2" stroke="#000" stroke-miterlimit="10" fill="none"/><path d="M135.11 160.383l-10.516 11.125" stroke-width="1.2" stroke="#00f" stroke-miterlimit="10" fill="none"/><path d="M148.754 156.434l-8.41 8.898" stroke-width="1.2" stroke="#000" stroke-miterlimit="10" fill="none"/><path d="M140.344 165.332l-8.41 8.898" stroke-width="1.2" stroke="#00f" stroke-miterlimit="10" fill="none"/><path d="M145.625 149.262l-4.375-14.668" stroke-width="1.2" stroke="#000" stroke-miterlimit="10" fill="none"/><path d="M141.25 134.594l-4.38-14.668M124.594 171.508l4.375 14.668" stroke-width="1.2" stroke="#00f" stroke-miterlimit="10" fill="none"/><path d="M128.97 186.176l4.378 14.668" stroke-width="1.2" stroke="#000" stroke-miterlimit="10" fill="none"/><path d="M120.594 164.508h9v14h-9zm0 0" fill="#fff"/><use xlink:href="#b" x="120.594" y="175.646" fill="#00f"/><path d="M133.348 200.844l29.78 7.09M137.992 194.543l23.824 5.672" stroke-width="1.2" stroke="#000" stroke-miterlimit="10" fill="none"/><path d="M107.09 112.836m2.754 1.19l.242-1.014m2.512 2.207l.484-2.03m2.27 3.22l.722-3.043m2.03 4.235l.966-4.06m1.79 5.25l1.206-5.073m1.543 6.264l1.45-6.086m1.303 7.278l1.692-7.102m1.062 8.293l1.934-8.117m.82 9.31l2.173-9.13m.582 10.32l2.414-10.145m-1.42 10.575l2.505-10.512" stroke="#000" stroke-miterlimit="10" fill="none"/><path d="M127.87 112.926h18v14h-18zm0 0" fill="#fff"/><g fill="#00f"><use xlink:href="#b" x="127.871" y="124.064"/><use xlink:href="#c" x="136.848" y="124.064"/></g><path d="M107.09 112.836L98.34 83.5M107.09 112.836l-21.028 22.246M86.063 135.082l-29.782-7.086M81.414 141.383L57.59 135.71M94.813 164.418l-8.75-29.336M56.28 127.996l-21.03 22.246M35.25 150.242L44 179.578M43.027 151.117l7 23.47M44 179.578l29.785 7.086M73.785 186.664l21.028-22.246M70.652 179.492l16.825-17.797" stroke-width="1.2" stroke="#000" stroke-miterlimit="10" fill="none"/></g></svg>
